assets/icons/24px/outline/burger-menu-24px.svg

<svg width="24" height="24" viewBox="0 0 24 24" fill="none" xmlns="http://www.w3.org/2000/svg">
<path d="M5 11C4.44772 11 4 11.4477 4 12C4 12.5523 4.44772 13 5 13V11ZM19 13C19.5523 13 20 12.5523 20 12C20 11.4477 19.5523 11 19 11V13ZM5 6C4.44772 6 4 6.44772 4 7C4 7.55228 4.44772 8 5 8V6ZM19 8C19.5523 8 20 7.55228 20 7C20 6.44772 19.5523 6 19 6V8ZM5 16C4.44772 16 4 16.4477 4 17C4 17.5523 4.44772 18 5 18V16ZM19 18C19.5523 18 20 17.5523 20 17C20 16.4477 19.5523 16 19 16V18ZM5 13H19V11H5V13ZM5 8H19V6H5V8ZM5 18H19V16H5V18Z" fill="white"/>
</svg>

<svg width="24" height="24" fill="none" xmlns="http://www.w3.org/2000/svg"><path d="M5 11a1 1 0 1 0 0 2v-2zm14 2a1 1 0 1 0 0-2v2zM5 6a1 1 0 0 0 0 2V6zm14 2a1 1 0 1 0 0-2v2zM5 16a1 1 0 1 0 0 2v-2zm14 2a1 1 0 1 0 0-2v2zM5 13h14v-2H5v2zm0-5h14V6H5v2zm0 10h14v-2H5v2z" fill="#fff"/></svg>
